svg/map/tunnel_line.svg

<?xml version="1.0" encoding="UTF-8"?>
<svg width="24px" height="24px" viewBox="0 0 24 24" version="1.1" xmlns="http://www.w3.org/2000/svg" xmlns:xlink="http://www.w3.org/1999/xlink">
    <title>tunnel_line</title>
    <g id="Icon" stroke="none" stroke-width="1" fill="none" fill-rule="evenodd">
        <g id="Map" transform="translate(-672.000000, -96.000000)">
            <g id="tunnel_line" transform="translate(672.000000, 96.000000)">
                <path d="M24,0 L24,24 L0,24 L0,0 L24,0 Z M12.5935,23.2578 L12.5819,23.2595 L12.5109,23.295 L12.4919,23.2987 L12.4767,23.295 L12.4057,23.2595 C12.3958,23.2564 12.387,23.259 12.3821,23.2649 L12.378,23.2758 L12.3609,23.7031 L12.3659,23.7235 L12.3769,23.7357 L12.4805,23.8097 L12.4953,23.8136 L12.5071,23.8097 L12.6107,23.7357 L12.6233,23.7197 L12.6267,23.7031 L12.6096,23.2758 C12.6076,23.2657 12.601,23.2593 12.5935,23.2578 Z M12.8584,23.1453 L12.8445,23.1473 L12.6598,23.2397 L12.6499,23.2499 L12.6472,23.2611 L12.6651,23.6906 L12.6699,23.7034 L12.6784,23.7105 L12.8793,23.8032 C12.8914,23.8069 12.9022,23.803 12.9078,23.7952 L12.9118,23.7812 L12.8777,23.1665 C12.8753,23.1546 12.8674,23.147 12.8584,23.1453 Z M12.143,23.1473 C12.1332,23.1424 12.1222,23.1453 12.1156,23.1526 L12.1099,23.1665 L12.0758,23.7812 C12.0751,23.7927 12.0828,23.8019 12.0926,23.8046 L12.1083,23.8032 L12.3092,23.7105 L12.3186,23.7024 L12.3225,23.6906 L12.3404,23.2611 L12.3372,23.2485 L12.3278,23.2397 L12.143,23.1473 Z" id="MingCute" fill-rule="nonzero"></path>
                <path d="M12,19.5 C12.51285,19.5 12.9355092,19.886027 12.9932725,20.3833761 L13,20.5 L13,21 C13,21.5523 12.5523,22 12,22 C11.48715,22 11.0644908,21.613973 11.0067275,21.1166239 L11,21 L11,20.5 C11,19.9477 11.4477,19.5 12,19.5 Z M12,2 C16.3349358,2 19.8645437,5.44783584 19.9961932,9.75082056 L20,10 L20,21 C20,21.4247 19.7318,21.8031 19.331,21.9436 C18.97037,22.07014 18.573128,21.979195 18.3038822,21.7180042 L18.2191,21.6247 L14.5194,17 L12.8662,17 C12.930025,17.110325 12.973375,17.2339813 12.9910609,17.3657375 L13,17.5 L13,18 C13,18.5523 12.5523,19 12,19 C11.48715,19 11.0644908,18.613973 11.0067275,18.1166239 L11,18 L11,17.5 C11,17.363425 11.0273938,17.2332063 11.0769922,17.114575 L11.1338,17 L9.48062,17 L5.78087,21.6247 C5.51557,21.9563 5.06974,22.0842 4.66899,21.9436 C4.308324,21.81715 4.0549749,21.498001 4.00791174,21.1258294 L4,21 L4,10 C4,5.58172 7.58172,2 12,2 Z M12,4 C8.76160159,4 6.12242817,6.56557346 6.00413847,9.77506164 L6,10 L6,18.1492 L8,15.6492 L8,12 C8,9.79086 9.79086,8 12,8 C14.1421576,8 15.8910766,9.68396753 15.9951046,11.8003596 L16,12 L16,15.6492 L18,18.1492 L18,10 C18,6.68629 15.3137,4 12,4 Z M12,10 C10.8954,10 10,10.8954 10,12 L10,15 L14,15 L14,12 C14,10.8954 13.1046,10 12,10 Z" id="形状" fill="#09244B"></path>
            </g>
        </g>
    </g>
</svg>

<svg xmlns="http://www.w3.org/2000/svg" width="24" height="24"><g fill="none" fill-rule="evenodd"><path d="M24 0v24H0V0h24ZM12.594 23.258l-.012.002-.071.035-.02.004-.014-.004-.071-.036c-.01-.003-.019 0-.024.006l-.004.01-.017.428.005.02.01.013.104.074.015.004.012-.004.104-.074.012-.016.004-.017-.017-.427c-.002-.01-.009-.017-.016-.018Zm.264-.113-.014.002-.184.093-.01.01-.003.011.018.43.005.012.008.008.201.092c.012.004.023 0 .029-.008l.004-.014-.034-.614c-.003-.012-.01-.02-.02-.022Zm-.715.002a.023.023 0 0 0-.027.006l-.006.014-.034.614c0 .012.007.02.017.024l.015-.002.201-.093.01-.008.003-.011.018-.43-.003-.012-.01-.01-.184-.092Z"/><path fill="#09244B" d="M12 19.5a1 1 0 0 1 .993.883L13 20.5v.5a1 1 0 0 1-1.993.117L11 21v-.5a1 1 0 0 1 1-1ZM12 2a8 8 0 0 1 7.996 7.75L20 10v11a1 1 0 0 1-1.696.718l-.085-.093L14.52 17h-1.653c.064.11.107.234.125.366L13 17.5v.5a1 1 0 0 1-1.993.117L11 18v-.5c0-.137.027-.267.077-.385l.057-.115H9.48l-3.7 4.625a1 1 0 0 1-1.773-.5L4 21V10a8 8 0 0 1 8-8Zm0 2a6 6 0 0 0-5.996 5.775L6 10v8.15l2-2.5V12a4 4 0 0 1 7.995-.2L16 12v3.65l2 2.5V10a6 6 0 0 0-6-6Zm0 6a2 2 0 0 0-2 2v3h4v-3a2 2 0 0 0-2-2Z"/></g></svg>
